images/50709427.svg

<?xml version="1.0" encoding="UTF-8"?>
<svg xmlns="http://www.w3.org/2000/svg" xmlns:xlink="http://www.w3.org/1999/xlink" width="300pt" height="300pt" viewBox="0 0 300 300" version="1.1">
<defs>
<g>
<symbol overflow="visible" id="glyph0-0">
<path style="stroke:none;" d="M 0.546875 1.9375 L 0.546875 -7.75 L 6.046875 -7.75 L 6.046875 1.9375 Z M 1.171875 1.328125 L 5.4375 1.328125 L 5.4375 -7.140625 L 1.171875 -7.140625 Z M 1.171875 1.328125 "/>
</symbol>
<symbol overflow="visible" id="glyph0-1">
<path style="stroke:none;" d="M 4.328125 -7.28125 C 3.546875 -7.28125 2.921875 -6.984375 2.453125 -6.390625 C 1.992188 -5.804688 1.765625 -5.007812 1.765625 -4 C 1.765625 -2.988281 1.992188 -2.1875 2.453125 -1.59375 C 2.921875 -1.007812 3.546875 -0.71875 4.328125 -0.71875 C 5.117188 -0.71875 5.742188 -1.007812 6.203125 -1.59375 C 6.660156 -2.1875 6.890625 -2.988281 6.890625 -4 C 6.890625 -5.007812 6.660156 -5.804688 6.203125 -6.390625 C 5.742188 -6.984375 5.117188 -7.28125 4.328125 -7.28125 Z M 4.328125 -8.171875 C 5.453125 -8.171875 6.351562 -7.789062 7.03125 -7.03125 C 7.707031 -6.28125 8.046875 -5.269531 8.046875 -4 C 8.046875 -2.738281 7.707031 -1.726562 7.03125 -0.96875 C 6.351562 -0.21875 5.453125 0.15625 4.328125 0.15625 C 3.203125 0.15625 2.300781 -0.21875 1.625 -0.96875 C 0.957031 -1.71875 0.625 -2.726562 0.625 -4 C 0.625 -5.269531 0.957031 -6.28125 1.625 -7.03125 C 2.300781 -7.789062 3.203125 -8.171875 4.328125 -8.171875 Z M 4.328125 -8.171875 "/>
</symbol>
<symbol overflow="visible" id="glyph0-2">
<path style="stroke:none;" d="M 1.078125 -8.015625 L 2.546875 -8.015625 L 6.09375 -1.3125 L 6.09375 -8.015625 L 7.15625 -8.015625 L 7.15625 0 L 5.6875 0 L 2.125 -6.703125 L 2.125 0 L 1.078125 0 Z M 1.078125 -8.015625 "/>
</symbol>
<symbol overflow="visible" id="glyph0-3">
<path style="stroke:none;" d="M 1.078125 -8.015625 L 2.171875 -8.015625 L 2.171875 -4.734375 L 6.109375 -4.734375 L 6.109375 -8.015625 L 7.1875 -8.015625 L 7.1875 0 L 6.109375 0 L 6.109375 -3.8125 L 2.171875 -3.8125 L 2.171875 0 L 1.078125 0 Z M 1.078125 -8.015625 "/>
</symbol>
<symbol overflow="visible" id="glyph1-0">
<path style="stroke:none;" d="M 0.453125 1.59375 L 0.453125 -6.34375 L 4.953125 -6.34375 L 4.953125 1.59375 Z M 0.953125 1.09375 L 4.453125 1.09375 L 4.453125 -5.84375 L 0.953125 -5.84375 Z M 0.953125 1.09375 "/>
</symbol>
<symbol overflow="visible" id="glyph1-1">
<path style="stroke:none;" d="M 4.140625 -5.640625 L 4.140625 -3.1875 L 6.59375 -3.1875 L 6.59375 -2.453125 L 4.140625 -2.453125 L 4.140625 0 L 3.40625 0 L 3.40625 -2.453125 L 0.953125 -2.453125 L 0.953125 -3.1875 L 3.40625 -3.1875 L 3.40625 -5.640625 Z M 4.140625 -5.640625 "/>
</symbol>
</g>
</defs>
<g id="surface10021">
<rect x="0" y="0" width="300" height="300" style="fill:rgb(100%,100%,100%);fill-opacity:1;stroke:none;"/>
<path style="fill:none;stroke-width:1.2;stroke-linecap:butt;stroke-linejoin:miter;stroke:rgb(100%,0%,0%);stroke-opacity:1;stroke-miterlimit:10;" d="M 163.578125 232.113281 L 150.980469 234.980469 "/>
<path style="fill:none;stroke-width:1.2;stroke-linecap:butt;stroke-linejoin:miter;stroke:rgb(0%,0%,0%);stroke-opacity:1;stroke-miterlimit:10;" d="M 150.980469 234.980469 L 138.378906 237.847656 "/>
<path style="fill:none;stroke-width:1.2;stroke-linecap:butt;stroke-linejoin:miter;stroke:rgb(0%,0%,0%);stroke-opacity:1;stroke-miterlimit:10;" d="M 185.296875 218.105469 L 174.4375 225.109375 "/>
<path style="fill:none;stroke-width:1.2;stroke-linecap:butt;stroke-linejoin:miter;stroke:rgb(100%,0%,0%);stroke-opacity:1;stroke-miterlimit:10;" d="M 174.4375 225.109375 L 163.578125 232.113281 "/>
<path style=" stroke:none;fill-rule:nonzero;fill:rgb(100%,100%,100%);fill-opacity:1;" d="M 159.578125 225.613281 L 168.578125 225.613281 L 168.578125 238.613281 L 159.578125 238.613281 Z M 159.578125 225.613281 "/>
<g style="fill:rgb(100%,0%,0%);fill-opacity:1;">
  <use xlink:href="#glyph0-1" x="159.578125" y="235.514648"/>
</g>
<path style="fill:none;stroke-width:1.2;stroke-linecap:butt;stroke-linejoin:miter;stroke:rgb(0%,0%,0%);stroke-opacity:1;stroke-miterlimit:10;" d="M 138.378906 237.847656 L 112.738281 234.617188 "/>
<path style="fill:none;stroke-width:1.2;stroke-linecap:butt;stroke-linejoin:miter;stroke:rgb(0%,0%,0%);stroke-opacity:1;stroke-miterlimit:10;" d="M 112.738281 234.617188 L 89.75 222.8125 "/>
<path style="fill:none;stroke-width:1.2;stroke-linecap:butt;stroke-linejoin:miter;stroke:rgb(0%,0%,0%);stroke-opacity:1;stroke-miterlimit:10;" d="M 89.75 222.8125 L 72.183594 203.855469 "/>
<path style="fill:none;stroke-width:1.2;stroke-linecap:butt;stroke-linejoin:miter;stroke:rgb(0%,0%,0%);stroke-opacity:1;stroke-miterlimit:10;" d="M 92.453125 216.785156 L 78.402344 201.617188 "/>
<path style="fill:none;stroke-width:1.2;stroke-linecap:butt;stroke-linejoin:miter;stroke:rgb(0%,0%,0%);stroke-opacity:1;stroke-miterlimit:10;" d="M 72.183594 203.855469 L 62.160156 180.035156 "/>
<path style="fill:none;stroke-width:1.2;stroke-linecap:butt;stroke-linejoin:miter;stroke:rgb(0%,0%,0%);stroke-opacity:1;stroke-miterlimit:10;" d="M 62.160156 180.035156 L 61.527344 167.128906 "/>
<path style="fill:none;stroke-width:1.2;stroke-linecap:butt;stroke-linejoin:miter;stroke:rgb(0%,0%,100%);stroke-opacity:1;stroke-miterlimit:10;" d="M 61.527344 167.128906 L 60.890625 154.226562 "/>
<path style="fill:none;stroke-width:1.2;stroke-linecap:butt;stroke-linejoin:miter;stroke:rgb(0%,0%,100%);stroke-opacity:1;stroke-miterlimit:10;" d="M 60.890625 154.226562 L 64.707031 141.878906 "/>
<path style="fill:none;stroke-width:1.2;stroke-linecap:butt;stroke-linejoin:miter;stroke:rgb(0%,0%,0%);stroke-opacity:1;stroke-miterlimit:10;" d="M 64.707031 141.878906 L 68.523438 129.535156 "/>
<path style="fill:none;stroke-width:1.2;stroke-linecap:butt;stroke-linejoin:miter;stroke:rgb(0%,0%,100%);stroke-opacity:1;stroke-miterlimit:10;" d="M 60.890625 154.226562 L 48.070312 152.609375 "/>
<path style="fill:none;stroke-width:1.2;stroke-linecap:butt;stroke-linejoin:miter;stroke:rgb(0%,0%,0%);stroke-opacity:1;stroke-miterlimit:10;" d="M 48.070312 152.609375 L 35.25 150.996094 "/>
<path style=" stroke:none;fill-rule:nonzero;fill:rgb(100%,100%,100%);fill-opacity:1;" d="M 48.890625 146.226562 L 72.890625 146.226562 L 72.890625 162.226562 L 48.890625 162.226562 Z M 48.890625 146.226562 "/>
<g style="fill:rgb(0%,0%,100%);fill-opacity:1;">
  <use xlink:href="#glyph0-2" x="48.890625" y="159.359375"/>
  <use xlink:href="#glyph0-3" x="56.874023" y="159.359375"/>
</g>
<g style="fill:rgb(0%,0%,100%);fill-opacity:1;">
  <use xlink:href="#glyph1-1" x="64.898438" y="154.476562"/>
</g>
<path style="fill:none;stroke-width:1.2;stroke-linecap:butt;stroke-linejoin:miter;stroke:rgb(0%,0%,0%);stroke-opacity:1;stroke-miterlimit:10;" d="M 68.523438 129.535156 L 89.800781 106.5625 "/>
<path style="fill:none;stroke-width:1.2;stroke-linecap:butt;stroke-linejoin:miter;stroke:rgb(0%,0%,0%);stroke-opacity:1;stroke-miterlimit:10;" d="M 89.800781 106.5625 L 115.441406 109.792969 "/>
<path style="fill:none;stroke-width:1.2;stroke-linecap:butt;stroke-linejoin:miter;stroke:rgb(0%,0%,0%);stroke-opacity:1;stroke-miterlimit:10;" d="M 79.777344 82.742188 L 89.800781 106.5625 "/>
<path style="fill:none;stroke-width:1.2;stroke-linecap:butt;stroke-linejoin:miter;stroke:rgb(0%,0%,0%);stroke-opacity:1;stroke-miterlimit:10;" d="M 86.382812 82.765625 L 94.402344 101.824219 "/>
<path style="fill:none;stroke-width:1.2;stroke-linecap:butt;stroke-linejoin:miter;stroke:rgb(0%,0%,0%);stroke-opacity:1;stroke-miterlimit:10;" d="M 115.441406 109.792969 L 131.058594 89.203125 "/>
<path style="fill:none;stroke-width:1.2;stroke-linecap:butt;stroke-linejoin:miter;stroke:rgb(0%,0%,0%);stroke-opacity:1;stroke-miterlimit:10;" d="M 112.15625 104.058594 L 124.652344 87.585938 "/>
<path style="fill:none;stroke-width:1.2;stroke-linecap:butt;stroke-linejoin:miter;stroke:rgb(0%,0%,0%);stroke-opacity:1;stroke-miterlimit:10;" d="M 131.058594 89.203125 L 143.878906 90.816406 "/>
<path style="fill:none;stroke-width:1.2;stroke-linecap:butt;stroke-linejoin:miter;stroke:rgb(0%,0%,100%);stroke-opacity:1;stroke-miterlimit:10;" d="M 143.878906 90.816406 L 156.699219 92.433594 "/>
<path style="fill:none;stroke-width:1.2;stroke-linecap:butt;stroke-linejoin:miter;stroke:rgb(0%,0%,0%);stroke-opacity:1;stroke-miterlimit:10;" d="M 131.058594 89.203125 L 121.035156 65.382812 "/>
<path style="fill:none;stroke-width:1.2;stroke-linecap:butt;stroke-linejoin:miter;stroke:rgb(0%,0%,100%);stroke-opacity:1;stroke-miterlimit:10;" d="M 156.699219 92.433594 L 168.191406 98.335938 "/>
<path style="fill:none;stroke-width:1.2;stroke-linecap:butt;stroke-linejoin:miter;stroke:rgb(0%,0%,0%);stroke-opacity:1;stroke-miterlimit:10;" d="M 168.191406 98.335938 L 179.6875 104.238281 "/>
<path style=" stroke:none;fill-rule:nonzero;fill:rgb(100%,100%,100%);fill-opacity:1;" d="M 148.699219 85.933594 L 165.699219 85.933594 L 165.699219 98.933594 L 148.699219 98.933594 Z M 148.699219 85.933594 "/>
<g style="fill:rgb(0%,0%,100%);fill-opacity:1;">
  <use xlink:href="#glyph0-2" x="148.699219" y="95.834961"/>
  <use xlink:href="#glyph0-3" x="156.682617" y="95.834961"/>
</g>
<path style="fill:none;stroke-width:1.2;stroke-linecap:butt;stroke-linejoin:miter;stroke:rgb(0%,0%,0%);stroke-opacity:1;stroke-miterlimit:10;" d="M 179.6875 104.238281 L 188.46875 113.714844 "/>
<path style="fill:none;stroke-width:1.2;stroke-linecap:butt;stroke-linejoin:miter;stroke:rgb(0%,0%,100%);stroke-opacity:1;stroke-miterlimit:10;" d="M 188.46875 113.714844 L 197.253906 123.195312 "/>
<path style="fill:none;stroke-width:1.2;stroke-linecap:butt;stroke-linejoin:miter;stroke:rgb(0%,0%,100%);stroke-opacity:1;stroke-miterlimit:10;" d="M 201.40625 90.230469 L 190.546875 97.234375 "/>
<path style="fill:none;stroke-width:1.2;stroke-linecap:butt;stroke-linejoin:miter;stroke:rgb(0%,0%,0%);stroke-opacity:1;stroke-miterlimit:10;" d="M 190.546875 97.234375 L 179.6875 104.238281 "/>
<path style="fill:none;stroke-width:1.2;stroke-linecap:butt;stroke-linejoin:miter;stroke:rgb(0%,0%,100%);stroke-opacity:1;stroke-miterlimit:10;" d="M 202.527344 96.742188 L 193.839844 102.34375 "/>
<path style="fill:none;stroke-width:1.2;stroke-linecap:butt;stroke-linejoin:miter;stroke:rgb(0%,0%,0%);stroke-opacity:1;stroke-miterlimit:10;" d="M 193.839844 102.34375 L 185.15625 107.945312 "/>
<path style="fill:none;stroke-width:1.2;stroke-linecap:butt;stroke-linejoin:miter;stroke:rgb(0%,0%,100%);stroke-opacity:1;stroke-miterlimit:10;" d="M 197.253906 123.195312 L 202.265625 135.101562 "/>
<path style="fill:none;stroke-width:1.2;stroke-linecap:butt;stroke-linejoin:miter;stroke:rgb(0%,0%,0%);stroke-opacity:1;stroke-miterlimit:10;" d="M 202.265625 135.101562 L 207.277344 147.011719 "/>
<path style="fill:none;stroke-width:1.2;stroke-linecap:butt;stroke-linejoin:miter;stroke:rgb(0%,0%,100%);stroke-opacity:1;stroke-miterlimit:10;" d="M 192.648438 127.933594 L 196.660156 137.460938 "/>
<path style="fill:none;stroke-width:1.2;stroke-linecap:butt;stroke-linejoin:miter;stroke:rgb(0%,0%,0%);stroke-opacity:1;stroke-miterlimit:10;" d="M 196.660156 137.460938 L 200.667969 146.988281 "/>
<path style=" stroke:none;fill-rule:nonzero;fill:rgb(100%,100%,100%);fill-opacity:1;" d="M 193.253906 116.695312 L 201.253906 116.695312 L 201.253906 129.695312 L 193.253906 129.695312 Z M 193.253906 116.695312 "/>
<g style="fill:rgb(0%,0%,100%);fill-opacity:1;">
  <use xlink:href="#glyph0-2" x="193.253906" y="126.59668"/>
</g>
<path style="fill:none;stroke-width:1.2;stroke-linecap:butt;stroke-linejoin:miter;stroke:rgb(0%,0%,0%);stroke-opacity:1;stroke-miterlimit:10;" d="M 207.277344 147.011719 L 208.546875 172.824219 "/>
<path style="fill:none;stroke-width:1.2;stroke-linecap:butt;stroke-linejoin:miter;stroke:rgb(0%,0%,0%);stroke-opacity:1;stroke-miterlimit:10;" d="M 207.277344 147.011719 L 225.664062 127.847656 "/>
<path style="fill:none;stroke-width:1.2;stroke-linecap:butt;stroke-linejoin:miter;stroke:rgb(0%,0%,0%);stroke-opacity:1;stroke-miterlimit:10;" d="M 208.546875 172.824219 L 200.914062 197.515625 "/>
<path style="fill:none;stroke-width:1.2;stroke-linecap:butt;stroke-linejoin:miter;stroke:rgb(0%,0%,0%);stroke-opacity:1;stroke-miterlimit:10;" d="M 231.535156 184.628906 L 208.546875 172.824219 "/>
<path style="fill:none;stroke-width:1.2;stroke-linecap:butt;stroke-linejoin:miter;stroke:rgb(0%,0%,0%);stroke-opacity:1;stroke-miterlimit:10;" d="M 226.460938 188.859375 L 208.070312 179.414062 "/>
<path style="fill:none;stroke-width:1.2;stroke-linecap:butt;stroke-linejoin:miter;stroke:rgb(0%,0%,0%);stroke-opacity:1;stroke-miterlimit:10;" d="M 200.914062 197.515625 L 185.296875 218.105469 "/>
<path style="fill:none;stroke-width:1.2;stroke-linecap:butt;stroke-linejoin:miter;stroke:rgb(0%,0%,0%);stroke-opacity:1;stroke-miterlimit:10;" d="M 194.507812 195.898438 L 182.011719 212.371094 "/>
<path style="fill:none;stroke-width:1.2;stroke-linecap:butt;stroke-linejoin:miter;stroke:rgb(0%,0%,0%);stroke-opacity:1;stroke-miterlimit:10;" d="M 185.296875 218.105469 L 211.089844 224.449219 "/>
<path style="fill:none;stroke-width:1.2;stroke-linecap:butt;stroke-linejoin:miter;stroke:rgb(0%,0%,0%);stroke-opacity:1;stroke-miterlimit:10;" d="M 211.089844 224.449219 L 232.808594 210.441406 "/>
<path style="fill:none;stroke-width:1.2;stroke-linecap:butt;stroke-linejoin:miter;stroke:rgb(0%,0%,0%);stroke-opacity:1;stroke-miterlimit:10;" d="M 209.964844 217.9375 L 227.339844 206.730469 "/>
<path style="fill:none;stroke-width:1.2;stroke-linecap:butt;stroke-linejoin:miter;stroke:rgb(0%,0%,0%);stroke-opacity:1;stroke-miterlimit:10;" d="M 232.808594 210.441406 L 231.535156 184.628906 "/>
<path style="fill:none;stroke-width:1.2;stroke-linecap:butt;stroke-linejoin:miter;stroke:rgb(0%,0%,0%);stroke-opacity:1;stroke-miterlimit:10;" d="M 225.664062 127.847656 L 238.136719 131.230469 "/>
<path style="fill:none;stroke-width:1.2;stroke-linecap:butt;stroke-linejoin:miter;stroke:rgb(0%,0%,100%);stroke-opacity:1;stroke-miterlimit:10;" d="M 238.136719 131.230469 L 250.605469 134.613281 "/>
<path style="fill:none;stroke-width:1.2;stroke-linecap:butt;stroke-linejoin:miter;stroke:rgb(0%,0%,0%);stroke-opacity:1;stroke-miterlimit:10;" d="M 224.394531 102.035156 L 225.664062 127.847656 "/>
<path style="fill:none;stroke-width:1.2;stroke-linecap:butt;stroke-linejoin:miter;stroke:rgb(0%,0%,0%);stroke-opacity:1;stroke-miterlimit:10;" d="M 218.449219 104.914062 L 219.464844 125.566406 "/>
<path style="fill:none;stroke-width:1.2;stroke-linecap:butt;stroke-linejoin:miter;stroke:rgb(0%,0%,100%);stroke-opacity:1;stroke-miterlimit:10;" d="M 250.605469 134.613281 L 257.679688 123.800781 "/>
<path style="fill:none;stroke-width:1.2;stroke-linecap:butt;stroke-linejoin:miter;stroke:rgb(0%,0%,0%);stroke-opacity:1;stroke-miterlimit:10;" d="M 257.679688 123.800781 L 264.75 112.984375 "/>
<path style=" stroke:none;fill-rule:nonzero;fill:rgb(100%,100%,100%);fill-opacity:1;" d="M 242.605469 128.113281 L 259.605469 128.113281 L 259.605469 141.113281 L 242.605469 141.113281 Z M 242.605469 128.113281 "/>
<g style="fill:rgb(0%,0%,100%);fill-opacity:1;">
  <use xlink:href="#glyph0-2" x="242.605469" y="138.014648"/>
  <use xlink:href="#glyph0-3" x="250.588867" y="138.014648"/>
</g>
<path style="fill:none;stroke-width:1.2;stroke-linecap:butt;stroke-linejoin:miter;stroke:rgb(0%,0%,0%);stroke-opacity:1;stroke-miterlimit:10;" d="M 264.75 112.984375 L 256.648438 102.917969 "/>
<path style="fill:none;stroke-width:1.2;stroke-linecap:butt;stroke-linejoin:miter;stroke:rgb(0%,0%,100%);stroke-opacity:1;stroke-miterlimit:10;" d="M 256.648438 102.917969 L 248.550781 92.851562 "/>
<path style="fill:none;stroke-width:1.2;stroke-linecap:butt;stroke-linejoin:miter;stroke:rgb(0%,0%,0%);stroke-opacity:1;stroke-miterlimit:10;" d="M 258.390625 114.78125 L 251.914062 106.730469 "/>
<path style="fill:none;stroke-width:1.2;stroke-linecap:butt;stroke-linejoin:miter;stroke:rgb(0%,0%,100%);stroke-opacity:1;stroke-miterlimit:10;" d="M 251.914062 106.730469 L 245.433594 98.675781 "/>
<path style="fill:none;stroke-width:1.2;stroke-linecap:butt;stroke-linejoin:miter;stroke:rgb(0%,0%,100%);stroke-opacity:1;stroke-miterlimit:10;" d="M 248.550781 92.851562 L 236.472656 97.441406 "/>
<path style="fill:none;stroke-width:1.2;stroke-linecap:butt;stroke-linejoin:miter;stroke:rgb(0%,0%,0%);stroke-opacity:1;stroke-miterlimit:10;" d="M 236.472656 97.441406 L 224.394531 102.035156 "/>
<path style=" stroke:none;fill-rule:nonzero;fill:rgb(100%,100%,100%);fill-opacity:1;" d="M 244.550781 86.351562 L 252.550781 86.351562 L 252.550781 99.351562 L 244.550781 99.351562 Z M 244.550781 86.351562 "/>
<g style="fill:rgb(0%,0%,100%);fill-opacity:1;">
  <use xlink:href="#glyph0-2" x="244.550781" y="96.25293"/>
</g>
<path style="fill:none;stroke-width:1.2;stroke-linecap:butt;stroke-linejoin:miter;stroke:rgb(0%,0%,0%);stroke-opacity:1;stroke-miterlimit:10;" d="M 224.394531 102.035156 L 212.898438 96.132812 "/>
<path style="fill:none;stroke-width:1.2;stroke-linecap:butt;stroke-linejoin:miter;stroke:rgb(0%,0%,100%);stroke-opacity:1;stroke-miterlimit:10;" d="M 212.898438 96.132812 L 201.40625 90.230469 "/>
<path style=" stroke:none;fill-rule:nonzero;fill:rgb(100%,100%,100%);fill-opacity:1;" d="M 197.40625 83.730469 L 205.40625 83.730469 L 205.40625 96.730469 L 197.40625 96.730469 Z M 197.40625 83.730469 "/>
<g style="fill:rgb(0%,0%,100%);fill-opacity:1;">
  <use xlink:href="#glyph0-2" x="197.40625" y="93.631836"/>
</g>
<path style="fill:none;stroke-width:1.2;stroke-linecap:butt;stroke-linejoin:miter;stroke:rgb(0%,0%,0%);stroke-opacity:1;stroke-miterlimit:10;" d="M 121.035156 65.382812 L 95.394531 62.152344 "/>
<path style="fill:none;stroke-width:1.2;stroke-linecap:butt;stroke-linejoin:miter;stroke:rgb(0%,0%,0%);stroke-opacity:1;stroke-miterlimit:10;" d="M 117.710938 71.09375 L 97.199219 68.507812 "/>
<path style="fill:none;stroke-width:1.2;stroke-linecap:butt;stroke-linejoin:miter;stroke:rgb(0%,0%,0%);stroke-opacity:1;stroke-miterlimit:10;" d="M 95.394531 62.152344 L 79.777344 82.742188 "/>
</g>
</svg>

<svg xmlns="http://www.w3.org/2000/svg" xmlns:xlink="http://www.w3.org/1999/xlink" width="300pt" height="300pt" viewBox="0 0 300 300"><defs><symbol overflow="visible"><path d="M.547 1.938V-7.75h5.5v9.688zm.625-.61h4.266v-8.47H1.171zm0 0"/></symbol><symbol overflow="visible" id="a"><path d="M4.328-7.28c-.78 0-1.406.296-1.875.89-.46.585-.687 1.382-.687 2.39 0 1.012.226 1.813.687 2.406.47.586 1.094.875 1.875.875.79 0 1.414-.288 1.875-.874.457-.593.688-1.394.688-2.406 0-1.008-.23-1.805-.687-2.39-.46-.594-1.086-.89-1.875-.89zm0-.892c1.125 0 2.024.383 2.703 1.14C7.708-6.28 8.048-5.27 8.048-4c0 1.262-.34 2.273-1.016 3.03C6.353-.22 5.454.157 4.33.157S2.3-.22 1.625-.97c-.668-.75-1-1.757-1-3.03 0-1.27.332-2.28 1-3.03.676-.76 1.578-1.142 2.703-1.142zm0 0"/></symbol><symbol overflow="visible" id="b"><path d="M1.078-8.016h1.47l3.546 6.704v-6.704h1.062V0H5.688L2.124-6.703V0H1.078zm0 0"/></symbol><symbol overflow="visible" id="c"><path d="M1.078-8.016h1.094v3.282H6.11v-3.282h1.077V0H6.11v-3.813H2.17V0H1.078zm0 0"/></symbol><symbol overflow="visible"><path d="M.453 1.594v-7.938h4.5v7.938zm.5-.5h3.5v-6.938h-3.5zm0 0"/></symbol><symbol overflow="visible" id="d"><path d="M4.14-5.64v2.452h2.454v.735H4.14V0h-.734v-2.453H.953v-.735h2.453V-5.64zm0 0"/></symbol></defs><g><path fill="#fff" d="M0 0h300v300H0z"/><path d="M163.578 232.113l-12.598 2.867" stroke-width="1.2" stroke="#f00" stroke-miterlimit="10" fill="none"/><path d="M150.98 234.98l-12.6 2.868M185.297 218.105l-10.86 7.004" stroke-width="1.2" stroke="#000" stroke-miterlimit="10" fill="none"/><path d="M174.438 225.11l-10.86 7.003" stroke-width="1.2" stroke="#f00" stroke-miterlimit="10" fill="none"/><path d="M159.578 225.613h9v13h-9zm0 0" fill="#fff"/><use xlink:href="#a" x="159.578" y="235.515" fill="#f00"/><path d="M138.38 237.848l-25.642-3.23M112.738 234.617L89.75 222.813M89.75 222.813l-17.566-18.958M92.453 216.785l-14.05-15.168M72.184 203.855l-10.024-23.82M62.16 180.035l-.633-12.906" stroke-width="1.2" stroke="#000" stroke-miterlimit="10" fill="none"/><path d="M61.527 167.13l-.636-12.903M60.89 154.227l3.817-12.348" stroke-width="1.2" stroke="#00f" stroke-miterlimit="10" fill="none"/><path d="M64.707 141.88l3.816-12.345" stroke-width="1.2" stroke="#000" stroke-miterlimit="10" fill="none"/><path d="M60.89 154.227l-12.82-1.618" stroke-width="1.2" stroke="#00f" stroke-miterlimit="10" fill="none"/><path d="M48.07 152.61l-12.82-1.614" stroke-width="1.2" stroke="#000" stroke-miterlimit="10" fill="none"/><path d="M48.89 146.227h24v16h-24zm0 0" fill="#fff"/><g fill="#00f"><use xlink:href="#b" x="48.891" y="159.359"/><use xlink:href="#c" x="56.874" y="159.359"/></g><use xlink:href="#d" x="64.898" y="154.477" fill="#00f"/><path d="M68.523 129.535L89.8 106.563M89.8 106.563l25.64 3.23M79.777 82.742l10.024 23.82M86.383 82.766l8.02 19.058M115.44 109.793l15.62-20.59M112.156 104.06l12.496-16.474M131.06 89.203l12.82 1.613" stroke-width="1.2" stroke="#000" stroke-miterlimit="10" fill="none"/><path d="M143.88 90.816l12.82 1.618" stroke-width="1.2" stroke="#00f" stroke-miterlimit="10" fill="none"/><path d="M131.06 89.203l-10.025-23.82" stroke-width="1.2" stroke="#000" stroke-miterlimit="10" fill="none"/><path d="M156.7 92.434l11.49 5.902" stroke-width="1.2" stroke="#00f" stroke-miterlimit="10" fill="none"/><path d="M168.19 98.336l11.498 5.902" stroke-width="1.2" stroke="#000" stroke-miterlimit="10" fill="none"/><path d="M148.7 85.934h17v13h-17zm0 0" fill="#fff"/><g fill="#00f"><use xlink:href="#b" x="148.699" y="95.835"/><use xlink:href="#c" x="156.683" y="95.835"/></g><path d="M179.688 104.238l8.78 9.477" stroke-width="1.2" stroke="#000" stroke-miterlimit="10" fill="none"/><path d="M188.47 113.715l8.784 9.48M201.406 90.23l-10.86 7.004" stroke-width="1.2" stroke="#00f" stroke-miterlimit="10" fill="none"/><path d="M190.547 97.234l-10.86 7.004" stroke-width="1.2" stroke="#000" stroke-miterlimit="10" fill="none"/><path d="M202.527 96.742l-8.687 5.602" stroke-width="1.2" stroke="#00f" stroke-miterlimit="10" fill="none"/><path d="M193.84 102.344l-8.684 5.6" stroke-width="1.2" stroke="#000" stroke-miterlimit="10" fill="none"/><path d="M197.254 123.195l5.012 11.907" stroke-width="1.2" stroke="#00f" stroke-miterlimit="10" fill="none"/><path d="M202.266 135.102l5.01 11.91" stroke-width="1.2" stroke="#000" stroke-miterlimit="10" fill="none"/><path d="M192.648 127.934l4.012 9.527" stroke-width="1.2" stroke="#00f" stroke-miterlimit="10" fill="none"/><path d="M196.66 137.46l4.008 9.528" stroke-width="1.2" stroke="#000" stroke-miterlimit="10" fill="none"/><path d="M193.254 116.695h8v13h-8zm0 0" fill="#fff"/><use xlink:href="#b" x="193.254" y="126.597" fill="#00f"/><path d="M207.277 147.012l1.27 25.812M207.277 147.012l18.387-19.164M208.547 172.824l-7.633 24.692M231.535 184.63l-22.988-11.806M226.46 188.86l-18.39-9.446M200.914 197.516l-15.617 20.59M194.508 195.898l-12.496 16.473M185.297 218.105l25.793 6.344M211.09 224.45l21.72-14.01M209.965 217.938l17.375-11.208M232.81 210.44l-1.275-25.81M225.664 127.848l12.473 3.382" stroke-width="1.2" stroke="#000" stroke-miterlimit="10" fill="none"/><path d="M238.137 131.23l12.468 3.383" stroke-width="1.2" stroke="#00f" stroke-miterlimit="10" fill="none"/><path d="M224.395 102.035l1.27 25.813M218.45 104.914l1.015 20.652" stroke-width="1.2" stroke="#000" stroke-miterlimit="10" fill="none"/><path d="M250.605 134.613l7.075-10.812" stroke-width="1.2" stroke="#00f" stroke-miterlimit="10" fill="none"/><path d="M257.68 123.8l7.07-10.816" stroke-width="1.2" stroke="#000" stroke-miterlimit="10" fill="none"/><path d="M242.605 128.113h17v13h-17zm0 0" fill="#fff"/><g fill="#00f"><use xlink:href="#b" x="242.605" y="138.015"/><use xlink:href="#c" x="250.589" y="138.015"/></g><path d="M264.75 112.984l-8.102-10.066" stroke-width="1.2" stroke="#000" stroke-miterlimit="10" fill="none"/><path d="M256.648 102.918l-8.097-10.066" stroke-width="1.2" stroke="#00f" stroke-miterlimit="10" fill="none"/><path d="M258.39 114.78l-6.476-8.05" stroke-width="1.2" stroke="#000" stroke-miterlimit="10" fill="none"/><path d="M251.914 106.73l-6.48-8.054M248.55 92.852l-12.077 4.59" stroke-width="1.2" stroke="#00f" stroke-miterlimit="10" fill="none"/><path d="M236.473 97.44l-12.078 4.595" stroke-width="1.2" stroke="#000" stroke-miterlimit="10" fill="none"/><path d="M244.55 86.352h8v13h-8zm0 0" fill="#fff"/><use xlink:href="#b" x="244.551" y="96.253" fill="#00f"/><path d="M224.395 102.035l-11.497-5.902" stroke-width="1.2" stroke="#000" stroke-miterlimit="10" fill="none"/><path d="M212.898 96.133l-11.492-5.903" stroke-width="1.2" stroke="#00f" stroke-miterlimit="10" fill="none"/><path d="M197.406 83.73h8v13h-8zm0 0" fill="#fff"/><use xlink:href="#b" x="197.406" y="93.632" fill="#00f"/><path d="M121.035 65.383l-25.64-3.23M117.71 71.094L97.2 68.508M95.395 62.152l-15.618 20.59" stroke-width="1.2" stroke="#000" stroke-miterlimit="10" fill="none"/></g></svg>
